X: 30947
T: Owen Connolly's Fling
R: barndance
M: 4/4
K: Gmajor
Bc|:(3ded BG D2Bd|gBdB cedc|BGDG BdcB|AG^FG A2Bc|
(3ded BG D2Bd|gBdB cedc|BGDG BdcB|(3ABA G2 G2Bc:|
|:dgBd (3BGG AB|(3cBA (3BAG (3ADD BA|GABc de^fd|(3g^fe fe dcBc|
dgBd (3BGG AB|(3cBA (3BAG (3ADD BA|GABc de(3^ffe|dgg^f g2Bc:|

